X:1
T:Good Christian Men Rejoice
C:Traditional
M:6/8
L:1/8
Q:3/8=96
K:G
G|B2c d2e|f2g f2f|B2c d2e|f2g f3|
f2g f2e|d2c B3|B3 B3|c2c d2c|
B2c d3|]
w: Good | Chris-tian men, * | re-joice with * | heart and soul and | voice; Give * | ye heed to what | we say: News! | News! Je- | -sus Christ is born | to-day _
